packages/kaspersky-hexa-ui-icons/src/iconsSVGs/64x42/FlagKh.svg

<svg xmlns="http://www.w3.org/2000/svg" width="64" height="42" fill="none" viewBox="0 0 64 42"><g clip-path="url(#a)"><rect width="64" height="42" fill="#fff" rx="5"/><path fill="#0f3eb6" fill-rule="evenodd" d="M0 11.2h64V0H0zM0 42h64V30.8H0z" clip-rule="evenodd"/><path fill="#ed1a3c" fill-rule="evenodd" d="M0 30.8001h64v-19.6H0z" clip-rule="evenodd"/><path fill="#fff" fill-rule="evenodd" d="M27.8 18.3273h2.8v-1.5272c0-.7732.6268-1.4 1.4-1.4s1.4.6268 1.4 1.4v1.5272h2.8v2.6729h-8.4zM39 16.8001c-.7732 0-1.4.6268-1.4 1.4v2.8h2.8v-2.8c0-.7732-.6268-1.4-1.4-1.4m-12.6001 5.6001h-2.8l-2.8 5.6001h5.6zm1.4001 0v5.6001h8.4v-5.6001zm9.8 0h2.8l2.8 5.6001h-5.6zM25 16.8001c-.7732 0-1.4.6268-1.4 1.4v2.8h2.8v-2.8c0-.7732-.6268-1.4-1.4-1.4" clip-rule="evenodd"/></g><defs><clipPath id="a"><rect width="64" height="42" fill="#fff" rx="5"/></clipPath></defs></svg>

<svg width="64" height="42" viewBox="0 0 64 42" fill="none" xmlns="http://www.w3.org/2000/svg">
<g clip-path="url(#clip0_37941_2281)">
<rect width="64" height="42" rx="5" fill="white"/>
<path fill-rule="evenodd" clip-rule="evenodd" d="M0 11.2H64V0H0V11.2Z" fill="#0F3EB6"/>
<path fill-rule="evenodd" clip-rule="evenodd" d="M0 41.9999H64V30.7999H0V41.9999Z" fill="#0F3EB6"/>
<path fill-rule="evenodd" clip-rule="evenodd" d="M0 30.8001H64V11.2001H0V30.8001Z" fill="#ED1A3C"/>
<path fill-rule="evenodd" clip-rule="evenodd" d="M27.8 18.3273H30.6V16.8001C30.6 16.0269 31.2268 15.4001 32 15.4001C32.7732 15.4001 33.4 16.0269 33.4 16.8001V18.3273H36.2V21.0002H27.8V18.3273ZM39 16.8001C38.2268 16.8001 37.6 17.4269 37.6 18.2001V21.0001H40.4V18.2001C40.4 17.4269 39.7732 16.8001 39 16.8001ZM26.3999 22.4002H23.5999L20.7999 28.0003H26.3999V22.4002ZM27.8 22.4002V28.0003H36.2V22.4002H27.8ZM37.6 22.4002H40.4L43.2 28.0003H37.6V22.4002ZM25 16.8001C24.2268 16.8001 23.6 17.4269 23.6 18.2001V21.0001H26.4V18.2001C26.4 17.4269 25.7732 16.8001 25 16.8001Z" fill="white"/>
</g>
<defs>
<clipPath id="clip0_37941_2281">
<rect width="64" height="42" rx="5" fill="white"/>
</clipPath>
</defs>
</svg>
